X: 10724
T: Doyles Of Maulykevane, The
R: polka
M: 2/4
K: Amajor
|:fe ce|ae cA/B/|cB BA/B/|c>B ce|
fe c>e|ae cA|B/c/B/A/ Bc|1 A2 Ac/e/:|2 A2 A2||
|:e2 ec/e/|a2 a2|fe/f/ af|e2- ec/e/|
ff/e/ ce|ae cA|B/c/B/A/ Bc|1 A2 A2:|2 A2 Ac/e/||

